packages/core/src/svgs/tokens/mono/FLUX.svg

<svg width="24" height="24" viewBox="0 0 24 24" fill="none" xmlns="http://www.w3.org/2000/svg">
<path fill-rule="evenodd" clip-rule="evenodd" d="M20.8235 6.99999L12.0001 2L3.17651 6.99999V11.6153L6.11769 9.94944L9.05886 11.6153V10.3329L15.8236 6.44469L20.8235 9.31875V6.99999ZM20.8235 16.9999L15.6306 19.943L10.8235 17.1388V11.3059L15.8236 8.3894L20.8235 11.3059V16.9999ZM13.9254 20.9088L12.0001 22L7.83357 19.6388L9.78946 18.5312L13.9254 20.9088ZM6.21533 18.7218L9.05886 17.0629V13.6324L6.11769 11.917L3.17651 13.6324V16.9999L6.21533 18.7218Z" fill="white"/>
</svg>

<svg xmlns="http://www.w3.org/2000/svg" width="24" height="24" fill="none" viewBox="0 0 24 24">
    <path fill="#fff" fill-rule="evenodd" d="M20.824 7 12 2 3.177 7v4.615l2.94-1.666 2.942 1.666v-1.282l6.765-3.888 5 2.874zm0 10-5.193 2.943-4.808-2.804v-5.833l5-2.917 5 2.917zm-6.899 3.909L12 22l-4.166-2.361 1.955-1.108zm-7.71-2.187 2.844-1.66v-3.43l-2.941-1.715-2.941 1.715V17z" clip-rule="evenodd"/>
</svg>
